X: 22043
T: Forres Country Dance
R: jig
Z: John Chambers <jc:trillian.mit.edu>
B: RSCDS 22-4(II)
M: 6/8
L: 1/8
%--------------------
K: G
B \
| "G"GDG BGB | dBd gdB | "C"cac "G"BgB | "Am"aAA "D7"A2B \
| "G"GDG BGB | dBd gdB | "Am"c2A "D7"F2d | "G"BGG G2 :|
|: d \
| "G"gbg "D7"faf | "Em"ege "Bm"d2B | "C"cac "G"BgB | "Am"cAA "D7"A2B \
| "G"GDG BGB | dge d2B | "Am"c2A "D7"F2d | "G"BGG G2 :|
%%center Book22/22042-Forres_Country_Dance-1.abc

%%sep 1 1 500
%%sep 1 1 500
